X:49
T:Suite Plinn (with chords)
R:Breton
S:from Anna Pack, Dec 2022
L:1/8
M:4/4
P:soprano: 4x; 4x; (don't play 4x); 4x; 3x
K:Fmaj
P:Ton simpl 1
|:"Dm"GA "Dm"AG F"Am"G F/2E/2D|"Dm"GA "Dm"AG (F"Am"F)F2:|
|:"Gm7(Bbmaj7)"GA AF BA "Am7(C)"G2|G/2A/2G "(Am)"FE "Bbmaj7(Dm)"D2D2:|
P:Ton simpl 2
|:"Dm"DF/2F/2 "Dm"FA A"C"G E"Am"F| "Dm"DF/2F/2 "Dm"FA A"C"G (E"Am"E):|
|:"Bbmaj7(Gm7)"DE DF ED CD|"C(Am)"EF DF E2D2:|
P:Bal
M:6/8
DDG G3|FGA G3|[M:9/8]FGA B2G G2F|
M:6/8
(A3A3)|FED G3|FGA G3|FGA B2G|G2FA3|
M:4/4
|:G2GG FE D2|A2Bc cB AF|G2GG FE D2|EF FD DC D2:|
P:Ton doubl 1
|:GE FD DD CG|GE FE D2D2:|
|:D>E FG AB A2|F/2G/2A BA GF EG|GE FD DD CG|GE FE D2D2:|
P:Ton doubl 2
|:"Dm"D>E "Dm"FG A"F"B A2|"Gm7"BB "Gm7"AA G"Am"F E2:|
|:"Bbmaj7"E>F GA AG F2|"C"DF FE/2D/2 CD E2|"Gm7"E>F GA AG F2|"Am"F/2E/2D EF D2D2:|

